; generated by PrusaSlicer 2.5.0+linux-x64-GTK3 on 2023-10-23 at 18:16:20 UTC

; 

; external perimeters extrusion width = 1.00mm
; perimeters extrusion width = 1.00mm
; infill extrusion width = 1.00mm
; solid infill extrusion width = 1.00mm
; top infill extrusion width = 1.00mm
; support material extrusion width = 1.00mm
; first layer extrusion width = 1.00mm

M107
;TYPE:Custom
M190 S70 ;Heat up bed
M140 S0 ;Stop bed heater
G28 ;Home
G29 ;Autolevel
G1 X0 Y0 Z5 F6000.000
M140 S70 ;Turn bed back on
M106 S255 ;Turn on fans
M109 S220  ;Set extruder temp
G21 ; set units to millimeters
G90 ; use absolute coordinates
M82 ; use absolute distances for extrusion
G92 E0
; Filament gcode
M106 S255
;LAYER_CHANGE
;Z:0.25
;HEIGHT:0.25
G1 E-2 F1800
G92 E0
G1 Z.05 F9000
G1 X141.629 Y113.394
G1 E2 F1800
;TYPE:Skirt/Brim
;WIDTH:1
G1 F900
G1 X142.654 Y112.114 E2.10566
G1 X144.183 Y110.432 E2.25207
G1 X145.668 Y109.119 E2.37983
G1 X147.283 Y107.967 E2.50758
G1 X149.008 Y106.99 E2.63534
G1 X151.527 Y105.951 E2.81088
G1 X153.439 Y105.427 E2.93863
G1 X154.659 Y105.202 E3.01855
G1 X156.633 Y105.008 E3.14632
G1 X158.616 Y105.021 E3.27406
G1 X160.485 Y105.222 E3.39517
G1 X162.204 Y105.58 E3.50831
G1 X164.789 Y106.441 E3.68385
G1 X165.918 Y106.954 E3.76377
G1 X167.648 Y107.924 E3.89153
G1 X169.267 Y109.068 E4.01928
G1 X170.686 Y110.302 E4.14039
G1 X172.346 Y112.114 E4.29872
G1 X188.912 Y132.858 E6.00905
G1 X190.565 Y135.289 E6.19848
G1 X192.141 Y138.048 E6.4032
G1 X193.727 Y141.513 E6.64871
G1 X194.758 Y144.418 E6.8473
G1 X195.604 Y147.611 E7.06009
G1 X196.126 Y150.503 E7.24944
G1 X196.437 Y153.52 E7.44485
G1 X196.512 Y156.488 E7.6361
G1 X196.267 Y160.388 E7.8879
G1 X195.676 Y164.049 E8.12679
G1 X194.67 Y167.856 E8.38048
G1 X193.297 Y171.515 E8.63229
G1 X191.663 Y174.843 E8.87115
G1 X189.589 Y178.191 E9.12486
G1 X187.24 Y181.254 E9.37354
G1 X184.774 Y183.898 E9.60654
G1 X181.845 Y186.487 E9.85835
G1 X178.842 Y188.66 E10.09717
G1 X175.441 Y190.645 E10.35091
G1 X171.884 Y192.266 E10.60271
G1 X168.378 Y193.468 E10.84153
G1 X164.545 Y194.374 E11.0953
G1 X160.717 Y194.883 E11.34408
G1 X157.13 Y195.014 E11.5753
G1 X153.203 Y194.778 E11.82878
G1 X149.4 Y194.165 E12.07694
G1 X145.757 Y193.206 E12.31966
G1 X142.089 Y191.843 E12.57177
G1 X138.883 Y190.287 E12.80132
G1 X135.525 Y188.237 E13.05483
G1 X132.452 Y185.913 E13.30308
G1 X129.685 Y183.359 E13.54569
G1 X127.071 Y180.417 E13.79921
G1 X124.81 Y177.297 E14.04751
G1 X122.909 Y174.047 E14.29006
G1 X121.276 Y170.491 E14.54216
G1 X120.105 Y167.126 E14.77171
G1 X119.174 Y163.302 E15.02527
G1 X118.64 Y159.484 E15.27363
G1 X118.484 Y155.8 E15.5112
G1 X118.622 Y152.721 E15.70976
G1 X119.127 Y148.944 E15.95529
G1 X119.754 Y146.124 E16.1414
G1 X120.691 Y143.064 E16.34756
G1 X121.871 Y140.099 E16.55314
G1 X123.157 Y137.486 E16.74077
G1 X124.776 Y134.753 E16.94548
G1 X127.042 Y131.614 E17.19486
G1 X141.554 Y113.488 E18.69086
G1 X142.293 Y114.079 F9000
G1 F900
G1 X143.393 Y112.705 E18.80424
G1 X144.106 Y111.874 E18.8748
G1 X145.373 Y110.61 E18.99008
G1 X146.833 Y109.42 E19.11148
G1 X148.41 Y108.388 E19.23288
G1 X150.086 Y107.526 E19.35427
G1 X151.842 Y106.844 E19.47567
G1 X153.66 Y106.348 E19.59706
G1 X154.782 Y106.14 E19.67062
G1 X156.658 Y105.954 E19.79203
G1 X158.542 Y105.965 E19.91342
G1 X160.321 Y106.154 E20.0287
G1 X161.952 Y106.492 E20.13601
G1 X164.443 Y107.322 E20.30519
G1 X165.483 Y107.794 E20.37875
G1 X167.127 Y108.714 E20.50015
G1 X168.667 Y109.8 E20.62155
G1 X170.018 Y110.973 E20.73682
G1 X171.607 Y112.705 E20.88827
G1 X188.143 Y133.41 E22.59542
G1 X189.755 Y135.779 E22.78006
G1 X191.296 Y138.473 E22.98
G1 X192.853 Y141.876 E23.22111
G1 X193.857 Y144.71 E23.41481
G1 X194.677 Y147.803 E23.62096
G1 X195.187 Y150.622 E23.80554
G1 X195.492 Y153.567 E23.9963
G1 X195.566 Y156.459 E24.18263
G1 X195.329 Y160.265 E24.42832
G1 X194.753 Y163.838 E24.66152
G1 X193.774 Y167.552 E24.90896
G1 X192.436 Y171.123 E25.15466
G1 X190.842 Y174.372 E25.38783
G1 X188.821 Y177.639 E25.63528
G1 X186.528 Y180.63 E25.87811
G1 X184.124 Y183.21 E26.10528
G1 X181.268 Y185.737 E26.35098
G1 X178.338 Y187.86 E26.58412
G1 X175.021 Y189.797 E26.8316
G1 X171.552 Y191.381 E27.0773
G1 X168.129 Y192.555 E27.31043
G1 X164.391 Y193.44 E27.55793
G1 X160.653 Y193.939 E27.80085
G1 X157.155 Y194.068 E28.02639
G1 X153.324 Y193.839 E28.27362
G1 X149.61 Y193.243 E28.51597
G1 X146.057 Y192.309 E28.7527
G1 X142.477 Y190.98 E28.99868
G1 X139.349 Y189.463 E29.22267
G1 X136.072 Y187.465 E29.46995
G1 X133.07 Y185.197 E29.71237
G1 X130.37 Y182.706 E29.949
G1 X127.819 Y179.839 E30.19627
G1 X125.61 Y176.792 E30.43874
G1 X123.756 Y173.623 E30.67531
G1 X122.16 Y170.154 E30.92128
G1 X121.016 Y166.871 E31.14529
G1 X120.107 Y163.142 E31.3926
G1 X119.584 Y159.414 E31.63512
G1 X119.43 Y155.816 E31.86711
G1 X119.564 Y152.813 E32.06078
G1 X120.06 Y149.103 E32.30191
G1 X120.673 Y146.352 E32.4835
G1 X121.588 Y143.365 E32.68477
G1 X122.73 Y140.497 E32.88368
G1 X123.983 Y137.948 E33.06667
G1 X125.564 Y135.278 E33.2666
G1 X127.663 Y132.355 E33.49839
G1 X142.218 Y114.173 E34.99895
;WIPE_START
G1 F7200
G1 X143.393 Y112.705 E34.55247
G1 X144.106 Y111.874 E34.29236
G1 X145.373 Y110.61 E33.8674
G1 X146.833 Y109.42 E33.41989
G1 X147.964 Y108.68 E33.09895
;WIPE_END
G1 E32.99895 F1800
G92 E0
G1 X163.158 Y154.932 F9000
G1 E2 F1800
;TYPE:Perimeter
;WIDTH:0.999999
G1 F375
G1 X163.265 Y155.882 E2.0616
G1 X163.214 Y156.67 E2.11251
G1 X163.146 Y157.176 E2.14535
G1 X162.96 Y157.821 E2.18861
G1 X162.758 Y158.357 E2.22555
G1 X162.409 Y159.013 E2.27341
G1 X162.146 Y159.407 E2.30395
G1 X161.731 Y159.911 E2.34598
G1 X161.402 Y160.238 E2.37588
G1 X160.874 Y160.669 E2.41976
G1 X160.48 Y160.93 E2.45024
G1 X159.877 Y161.248 E2.49417
G1 X159.446 Y161.423 E2.52409
G1 X158.821 Y161.608 E2.5661
G1 X158.376 Y161.694 E2.59533
G1 X157.727 Y161.757 E2.63735
G1 X157.273 Y161.757 E2.66657
G1 X156.624 Y161.694 E2.70858
G1 X156.179 Y161.608 E2.73779
G1 X155.554 Y161.423 E2.7798
G1 X155.115 Y161.243 E2.81035
G1 X154.487 Y160.909 E2.85616
G1 X154.093 Y160.646 E2.88671
G1 X153.59 Y160.231 E2.92873
G1 X153.262 Y159.902 E2.95863
G1 X152.831 Y159.375 E3.00252
G1 X152.57 Y158.98 E3.033
G1 X152.252 Y158.377 E3.07693
G1 X152.025 Y157.768 E3.1188
G1 X151.882 Y157.286 E3.15117
G1 X151.743 Y156.227 E3.22
G1 X151.75 Y155.703 E3.25373
G1 X151.806 Y155.121 E3.29143
G1 X151.892 Y154.679 E3.32045
G1 X152.077 Y154.054 E3.36247
G1 X152.252 Y153.624 E3.39238
G1 X152.57 Y153.02 E3.43631
G1 X152.831 Y152.626 E3.46679
G1 X153.262 Y152.098 E3.51068
G1 X153.59 Y151.769 E3.54058
G1 X154.093 Y151.354 E3.58259
G1 X154.469 Y151.101 E3.61181
G1 X155.042 Y150.79 E3.65383
G1 X155.459 Y150.612 E3.68306
G1 X156.081 Y150.416 E3.72508
G1 X156.536 Y150.321 E3.755
G1 X157.214 Y150.247 E3.79893
G1 X157.687 Y150.243 E3.82941
G1 X158.365 Y150.305 E3.87329
G1 X158.821 Y150.392 E3.90319
G1 X159.446 Y150.577 E3.94521
G1 X159.867 Y150.747 E3.97443
G1 X160.445 Y151.049 E4.01645
G1 X160.842 Y151.308 E4.04699
G1 X161.394 Y151.756 E4.09281
G1 X161.738 Y152.098 E4.12404
G1 X162.169 Y152.626 E4.16793
G1 X162.43 Y153.02 E4.19841
G1 X162.748 Y153.623 E4.24234
G1 X162.977 Y154.237 E4.28455
G1 X163.141 Y154.813 E4.32311
G1 X162.217 Y155.082 F9000
G1 F375
G1 X162.315 Y155.864 E4.37386
G1 X162.272 Y156.58 E4.42003
G1 X162.2 Y157.053 E4.45086
G1 X162.015 Y157.678 E4.49287
G1 X161.688 Y158.353 E4.5412
G1 X161.43 Y158.788 E4.57378
G1 X161.001 Y159.309 E4.61727
G1 X160.513 Y159.742 E4.6593
G1 X160.09 Y160.065 E4.69357
G1 X159.436 Y160.41 E4.74125
G1 X158.903 Y160.597 E4.77761
G1 X158.416 Y160.734 E4.81023
G1 X157.849 Y160.795 E4.84697
G1 X157.364 Y160.815 E4.87823
G1 X156.715 Y160.752 E4.92024
G1 X155.97 Y160.559 E4.96984
G1 X155.559 Y160.408 E4.99802
G1 X154.931 Y160.074 E5.04384
G1 X154.42 Y159.689 E5.0851
G1 X154.031 Y159.345 E5.11854
G1 X153.564 Y158.776 E5.16595
G1 X153.268 Y158.274 E5.20349
G1 X153.032 Y157.812 E5.23694
G1 X152.8 Y157.053 E5.28809
G1 X152.685 Y156.136 E5.34759
G1 X152.748 Y155.215 E5.40708
G1 X152.969 Y154.376 E5.46299
G1 X153.09 Y154.064 E5.48451
G1 X153.407 Y153.461 E5.52844
G1 X153.751 Y152.996 E5.56568
G1 X154.122 Y152.561 E5.60255
G1 X154.695 Y152.085 E5.65052
G1 X155.493 Y151.621 E5.71002
G1 X156.366 Y151.319 E5.76952
G1 X157.221 Y151.198 E5.82515
G1 X157.6 Y151.185 E5.8496
G1 X158.279 Y151.247 E5.89349
G1 X159.177 Y151.485 E5.95338
G1 X160.008 Y151.888 E6.01288
G1 X160.799 Y152.491 E6.07696
G1 X161.249 Y152.996 E6.12054
G1 X161.58 Y153.437 E6.15605
G1 X161.91 Y154.064 E6.20172
G1 X162.202 Y154.963 E6.26262
G1 X161.264 Y155.122 F9000
;TYPE:External perimeter
G1 F375
G1 X161.293 Y155.217 E6.26899
G1 X161.373 Y155.955 E6.31683
G1 X161.293 Y156.784 E6.37049
G1 X161.108 Y157.409 E6.4125
G1 X160.685 Y158.203 E6.47047
G1 X160.27 Y158.707 E6.51249
G1 X159.677 Y159.203 E6.56233
G1 X158.995 Y159.573 E6.61233
G1 X158.284 Y159.793 E6.6603
G1 X157.455 Y159.873 E6.71396
G1 X156.806 Y159.81 E6.75597
G1 X156.004 Y159.572 E6.80987
G1 X155.376 Y159.238 E6.85569
G1 X154.793 Y158.771 E6.9038
G1 X154.297 Y158.177 E6.95364
G1 X153.927 Y157.495 E7.00364
G1 X153.707 Y156.784 E7.05161
G1 X153.627 Y156.046 E7.09945
G1 X153.69 Y155.306 E7.14729
G1 X153.876 Y154.645 E7.19154
G1 X154.097 Y154.183 E7.22448
G1 X154.297 Y153.823 E7.25104
G1 X154.728 Y153.295 E7.29493
G1 X155.297 Y152.815 E7.34289
G1 X155.945 Y152.453 E7.39074
G1 X156.651 Y152.221 E7.43858
G1 X157.324 Y152.139 E7.48228
G1 X157.872 Y152.16 E7.51759
G1 X158.283 Y152.207 E7.5443
G1 X158.909 Y152.392 E7.58631
G1 X159.571 Y152.727 E7.63416
G1 X160.203 Y153.227 E7.68605
G1 X160.703 Y153.823 E7.73616
G1 X161.073 Y154.505 E7.78616
G1 X161.228 Y155.007 E7.82004
G1 X161.361 Y155.141 F9000
G1 E5.82004 F1800
G92 E0
G1 X161.682 Y121.91 F9000
G1 E2 F1800
;TYPE:Perimeter
;WIDTH:1.32275
G1 F750
G1 X161.778 Y121.992 E2.01091
;WIDTH:1.27664
G1 X161.873 Y122.075 E2.02142
;WIDTH:1.23053
G1 X161.969 Y122.157 E2.03153
;WIDTH:1.18443
G1 X162.064 Y122.24 E2.04125
;WIDTH:1.13832
G1 X162.16 Y122.322 E2.05057
;WIDTH:1.09221
G1 X162.255 Y122.405 E2.05949
;WIDTH:1.04611
G1 X162.351 Y122.487 E2.06802
;WIDTH:0.999999
G1 X176.794 Y140.526 E3.55681
G1 X177.333 Y141.225 E3.6137
G1 X177.834 Y141.923 E3.66904
G1 X178.37 Y142.73 E3.7315
G1 X178.932 Y143.658 E3.80133
G1 X179.399 Y144.507 E3.86377
G1 X179.785 Y145.274 E3.91912
G1 X180.144 Y146.055 E3.97447
G1 X180.516 Y146.95 E4.03693
G1 X180.891 Y147.969 E4.10692
G1 X181.155 Y148.782 E4.16195
G1 X181.421 Y149.719 E4.22474
G1 X181.625 Y150.554 E4.28009
G1 X181.799 Y151.395 E4.33542
G1 X181.961 Y152.351 E4.39788
G1 X182.098 Y153.429 E4.46789
G1 X182.172 Y154.28 E4.52291
G1 X182.221 Y155.253 E4.5857
G1 X182.232 Y156.102 E4.64038
G1 X182.192 Y157.407 E4.72451
G1 X182.096 Y158.583 E4.80054
G1 X181.926 Y159.873 E4.88435
G1 X181.736 Y160.925 E4.95322
G1 X181.472 Y162.081 E5.02961
G1 X181.121 Y163.327 E5.11306
G1 X180.705 Y164.554 E5.19651
G1 X180.27 Y165.652 E5.27256
G1 X179.732 Y166.835 E5.35635
G1 X179.243 Y167.786 E5.42522
G1 X178.653 Y168.815 E5.50162
G1 X177.953 Y169.904 E5.58506
G1 X177.197 Y170.956 E5.66852
G1 X176.458 Y171.883 E5.74488
G1 X175.752 Y172.689 E5.81393
G1 X174.931 Y173.545 E5.89034
G1 X173.987 Y174.435 E5.97394
G1 X173.088 Y175.201 E6.04999
G1 X172.057 Y175.993 E6.13376
G1 X171.18 Y176.604 E6.20264
G1 X170.176 Y177.236 E6.27904
G1 X169.047 Y177.87 E6.36248
G1 X167.886 Y178.445 E6.44594
G1 X166.804 Y178.915 E6.52198
G1 X165.586 Y179.372 E6.60575
G1 X164.569 Y179.7 E6.67464
G1 X163.424 Y180.012 E6.75105
G1 X162.159 Y180.289 E6.83449
G1 X160.881 Y180.499 E6.91795
G1 X159.704 Y180.633 E6.9943
G1 X158.634 Y180.705 E7.06335
G1 X157.446 Y180.732 E7.13993
G1 X156.264 Y180.701 E7.21611
G1 X154.972 Y180.602 E7.29958
G1 X153.688 Y180.436 E7.38301
G1 X152.521 Y180.225 E7.45942
G1 X151.478 Y179.987 E7.52831
G1 X150.226 Y179.638 E7.61207
G1 X149.106 Y179.264 E7.68812
G1 X147.898 Y178.791 E7.77172
G1 X146.816 Y178.305 E7.84813
G1 X145.86 Y177.821 E7.91718
G1 X144.828 Y177.238 E7.99354
G1 X143.733 Y176.546 E8.077
G1 X142.677 Y175.797 E8.16043
G1 X141.745 Y175.063 E8.23684
G1 X140.935 Y174.365 E8.30572
G1 X139.993 Y173.469 E8.3895
G1 X139.179 Y172.614 E8.46554
G1 X138.335 Y171.631 E8.549
G1 X137.543 Y170.607 E8.63243
G1 X136.866 Y169.633 E8.70884
G1 X136.296 Y168.729 E8.77772
G1 X135.656 Y167.596 E8.86151
G1 X135.127 Y166.541 E8.93755
G1 X134.605 Y165.353 E9.02115
G1 X134.183 Y164.245 E9.09755
G1 X133.848 Y163.227 E9.1666
G1 X133.529 Y162.085 E9.24297
G1 X133.243 Y160.822 E9.32642
G1 X133.024 Y159.546 E9.40986
G1 X132.882 Y158.368 E9.48625
G1 X132.803 Y157.302 E9.55513
G1 X132.768 Y155.994 E9.63943
G1 X132.783 Y155.148 E9.69395
G1 X132.844 Y154.064 E9.76393
G1 X132.939 Y153.099 E9.82639
G1 X133.054 Y152.248 E9.88173
G1 X133.2 Y151.401 E9.93709
G1 X133.4 Y150.447 E9.99987
G1 X133.606 Y149.618 E10.05491
G1 X133.909 Y148.575 E10.12489
G1 X134.218 Y147.656 E10.18735
G1 X134.522 Y146.852 E10.2427
G1 X134.854 Y146.06 E10.29804
G1 X135.263 Y145.176 E10.36082
G1 X135.65 Y144.414 E10.41587
G1 X136.18 Y143.466 E10.48586
G1 X136.687 Y142.64 E10.54832
G1 X137.164 Y141.925 E10.60366
G1 X137.667 Y141.225 E10.65919
G1 X138.206 Y140.526 E10.71607
G1 X152.788 Y122.313 E12.21922
;WIDTH:1.04377
G1 X152.908 Y122.199 E12.23036
;WIDTH:1.08754
G1 X153.027 Y122.085 E12.242
;WIDTH:1.13131
G1 X153.147 Y121.971 E12.25414
;WIDTH:1.17507
G1 X153.266 Y121.856 E12.26677
;WIDTH:1.21884
G1 X153.386 Y121.742 E12.27989
;WIDTH:1.26261
G1 X153.506 Y121.628 E12.2935
G1 X153.469 Y121.74 E12.30322
;WIDTH:1.22415
G1 X153.432 Y121.852 E12.31264
;WIDTH:1.18569
G1 X153.395 Y121.964 E12.32174
;WIDTH:1.14723
G1 X153.358 Y122.077 E12.33054
;WIDTH:1.10876
G1 X153.274 Y122.376 E12.35286
;WIDTH:1.07251
G1 X153.19 Y122.675 E12.37441
;WIDTH:1.03625
G1 X153.107 Y122.974 E12.3952
;WIDTH:0.999999
G1 X152.99 Y123.852 E12.45226
G1 X153.055 Y124.772 E12.5117
G1 X153.29 Y125.626 E12.56875
G1 X153.678 Y126.399 E12.62448
G1 X154.206 Y127.085 E12.68021
G1 X154.532 Y127.4 E12.70943
G1 X155.05 Y127.796 E12.7514
G1 X155.601 Y128.094 E12.79181
G1 X156.022 Y128.264 E12.82103
G1 X156.634 Y128.434 E12.86199
G1 X157.276 Y128.504 E12.90356
G1 X157.805 Y128.502 E12.93767
G1 X158.537 Y128.396 E12.98532
G1 X159.052 Y128.237 E13.02005
G1 X159.47 Y128.06 E13.04927
G1 X160.024 Y127.747 E13.09031
G1 X160.569 Y127.307 E13.13539
G1 X160.912 Y126.952 E13.16725
G1 X161.442 Y126.196 E13.2267
G1 X161.789 Y125.404 E13.28243
G1 X161.978 Y124.559 E13.33817
G1 X162 Y123.674 E13.39522
G1 X161.84 Y122.765 E13.45466
;WIDTH:1.04611
G1 X161.818 Y122.643 E13.46306
;WIDTH:1.09221
G1 X161.795 Y122.521 E13.47184
;WIDTH:1.13832
G1 X161.773 Y122.399 E13.48102
;WIDTH:1.18443
G1 X161.75 Y122.277 E13.49059
;WIDTH:1.23053
G1 X161.727 Y122.154 E13.50055
;WIDTH:1.27664
G1 X161.705 Y122.032 E13.5109
;WIDTH:1.32275
G1 X161.704 Y122.028 E13.51127
G1 E11.51127 F1800
G92 E0
G1 X159.826 Y118.828 F9000
G1 E2 F1800
;WIDTH:0.999999
G1 F750
G1 X160.418 Y119.134 E2.04293
G1 X160.909 Y119.464 E2.08107
G1 X161.477 Y119.956 E2.12947
G1 X161.949 Y120.471 E2.17444
G1 X177.537 Y139.941 E3.78139
G1 X178.092 Y140.659 E3.83987
G1 X178.613 Y141.385 E3.89741
G1 X179.17 Y142.224 E3.96226
G1 X179.751 Y143.184 E4.0346
G1 X180.237 Y144.066 E4.09943
G1 X180.638 Y144.864 E4.15698
G1 X181.011 Y145.675 E4.21453
G1 X181.397 Y146.605 E4.27938
G1 X181.786 Y147.66 E4.35182
G1 X182.06 Y148.507 E4.40917
G1 X182.336 Y149.478 E4.47422
G1 X182.548 Y150.346 E4.53177
G1 X182.73 Y151.22 E4.5893
G1 X182.897 Y152.212 E4.65415
G1 X183.039 Y153.328 E4.7266
G1 X183.116 Y154.215 E4.78394
G1 X183.167 Y155.223 E4.849
G1 X183.178 Y156.11 E4.90613
G1 X183.137 Y157.46 E4.99312
G1 X183.037 Y158.683 E5.07221
G1 X182.862 Y160.019 E5.15901
G1 X182.663 Y161.114 E5.23072
G1 X182.39 Y162.314 E5.31004
G1 X182.025 Y163.608 E5.39661
G1 X181.594 Y164.881 E5.48319
G1 X181.142 Y166.022 E5.5623
G1 X180.584 Y167.248 E5.64908
G1 X180.074 Y168.238 E5.7208
G1 X179.462 Y169.306 E5.80011
G1 X178.736 Y170.436 E5.88668
G1 X177.951 Y171.528 E5.97326
G1 X177.184 Y172.49 E6.05256
G1 X176.449 Y173.328 E6.12439
G1 X175.597 Y174.217 E6.20371
G1 X174.618 Y175.14 E6.29038
G1 X173.684 Y175.936 E6.36948
G1 X172.616 Y176.757 E6.45625
